_editor/libs/builder/icons/play-button.svg

<svg enable-background="new 0 0 60 60" viewBox="0 0 60 60" xmlns="http://www.w3.org/2000/svg"><path d="m45.563 29.174-22-15c-.307-.208-.703-.231-1.031-.058-.327.173-.532.513-.532.884v30c0 .371.205.711.533.884.146.078.307.116.467.116.197 0 .394-.059.563-.174l22-15c.273-.186.437-.495.437-.826s-.164-.64-.437-.826zm-21.563 13.933v-26.214l19.225 13.107z"/><path d="m30 0c-16.542 0-30 13.458-30 30s13.458 30 30 30 30-13.458 30-30-13.458-30-30-30zm0 58c-15.439 0-28-12.561-28-28s12.561-28 28-28 28 12.561 28 28-12.561 28-28 28z"/></svg>

<?xml version="1.0" encoding="iso-8859-1"?>
<!-- Generator: Adobe Illustrator 19.0.0, SVG Export Plug-In . SVG Version: 6.00 Build 0)  -->
<svg version="1.1" id="Capa_1" xmlns="http://www.w3.org/2000/svg" xmlns:xlink="http://www.w3.org/1999/xlink" x="0px" y="0px"
	 viewBox="0 0 60 60" style="enable-background:new 0 0 60 60;" xml:space="preserve">
<g>
	<path d="M45.563,29.174l-22-15c-0.307-0.208-0.703-0.231-1.031-0.058C22.205,14.289,22,14.629,22,15v30
		c0,0.371,0.205,0.711,0.533,0.884C22.679,45.962,22.84,46,23,46c0.197,0,0.394-0.059,0.563-0.174l22-15
		C45.836,30.64,46,30.331,46,30S45.836,29.36,45.563,29.174z M24,43.107V16.893L43.225,30L24,43.107z"/>
	<path d="M30,0C13.458,0,0,13.458,0,30s13.458,30,30,30s30-13.458,30-30S46.542,0,30,0z M30,58C14.561,58,2,45.439,2,30
		S14.561,2,30,2s28,12.561,28,28S45.439,58,30,58z"/>
</g>
<g>
</g>
<g>
</g>
<g>
</g>
<g>
</g>
<g>
</g>
<g>
</g>
<g>
</g>
<g>
</g>
<g>
</g>
<g>
</g>
<g>
</g>
<g>
</g>
<g>
</g>
<g>
</g>
<g>
</g>
</svg>
